image/kitchen-icon1.svg

<svg width="64" height="64" viewBox="0 0 64 64" fill="none" xmlns="http://www.w3.org/2000/svg">
<path d="M26.0548 43.8799C25.8387 43.8799 25.6211 43.8038 25.4435 43.6487L19.332 38.3139C19.1212 38.1296 19 37.8606 19 37.5764C19 37.2927 19.1217 37.0237 19.332 36.8394L25.4435 31.5046C25.8403 31.1578 26.4364 31.2069 26.7748 31.6138C27.1126 32.0211 27.0651 32.6322 26.6678 32.9785L21.4012 37.5764L26.6678 42.1743C27.0651 42.5211 27.1126 43.1322 26.7748 43.539C26.5877 43.7643 26.322 43.8799 26.0548 43.8799Z" fill="#E03D3B"/>
<path d="M38.9449 43.8799C38.6777 43.8799 38.4121 43.7643 38.2255 43.539C37.8872 43.1322 37.9351 42.5211 38.332 42.1743L43.5988 37.5764L38.332 32.9785C37.9351 32.6322 37.8872 32.0211 38.2255 31.6138C38.5634 31.2069 39.16 31.1578 39.5563 31.5046L45.668 36.8394C45.8788 37.0237 46 37.2927 46 37.5764C46 37.8606 45.8788 38.1296 45.668 38.3139L39.5563 43.6487C39.3787 43.8038 39.161 43.8799 38.9449 43.8799Z" fill="#E03D3B"/>
<path d="M29.9961 47.7589C29.9278 47.7589 29.859 47.7523 29.7896 47.739C29.2524 47.6346 28.9083 47.1479 29.0216 46.6525L33.0322 29.0924C33.1454 28.597 33.6726 28.2797 34.2104 28.3841C34.7476 28.4885 35.0917 28.9747 34.9784 29.4706L30.9678 47.0307C30.869 47.4626 30.4561 47.7589 29.9961 47.7589Z" fill="#E03D3B"/>
<path d="M54.6816 56.4866H10.3184C6.83467 56.4866 4 53.7541 4 50.3947V14.0918C4 10.733 6.83467 8 10.3184 8H54.6816C58.1653 8 61 10.733 61 14.0918V50.3947C61 53.7541 58.1653 56.4866 54.6816 56.4866ZM10.3184 9.81459C7.87233 9.81459 5.88208 11.7335 5.88208 14.0918V50.3947C5.88208 52.7531 7.87233 54.672 10.3184 54.672H54.6816C57.1277 54.672 59.1179 52.7531 59.1179 50.3947V14.0918C59.1179 11.7335 57.1277 9.81459 54.6816 9.81459H10.3184Z" fill="#E03D3B"/>
<path d="M60.059 22.5459H4.94104C4.42116 22.5459 4 22.1119 4 21.5762C4 21.041 4.42116 20.6064 4.94104 20.6064H60.059C60.5788 20.6064 61 21.041 61 21.5762C61 22.1119 60.5788 22.5459 60.059 22.5459Z" fill="#E03D3B"/>
<path d="M20 18.667C18.3463 18.667 17 17.3614 17 15.7578C17 14.1537 18.3463 12.8486 20 12.8486C21.6542 12.8486 23 14.1537 23 15.7578C23 17.3614 21.6542 18.667 20 18.667ZM20 14.6872C19.3916 14.6872 18.896 15.1674 18.896 15.7578C18.896 16.3483 19.3916 16.8284 20 16.8284C20.6089 16.8284 21.104 16.3483 21.104 15.7578C21.104 15.1674 20.6089 14.6872 20 14.6872Z" fill="#E03D3B"/>
<path d="M11 18.667C9.34579 18.667 8 17.3619 8 15.7578C8 14.1537 9.34579 12.8486 11 12.8486C12.6542 12.8486 14 14.1537 14 15.7578C14 17.3619 12.6542 18.667 11 18.667ZM11 14.6872C10.3916 14.6872 9.89596 15.1679 9.89596 15.7578C9.89596 16.3483 10.3916 16.8284 11 16.8284C11.6089 16.8284 12.104 16.3483 12.104 15.7578C12.104 15.1679 11.6089 14.6872 11 14.6872Z" fill="#E03D3B"/>
<path d="M28.9997 18.667C27.3459 18.667 26 17.3618 26 15.7576C26 14.1538 27.3459 12.8486 28.9997 12.8486C30.6541 12.8486 32 14.1538 32 15.7576C32 17.3618 30.6541 18.667 28.9997 18.667ZM28.9997 14.6868C28.3913 14.6868 27.8961 15.167 27.8961 15.7576C27.8961 16.3481 28.3913 16.8283 28.9997 16.8283C29.6087 16.8283 30.1039 16.3481 30.1039 15.7576C30.1039 15.167 29.6087 14.6868 28.9997 14.6868Z" fill="#E03D3B"/>
</svg>

<?xml version="1.0" encoding="UTF-8" standalone="no"?>
<svg width="64" xmlns="http://www.w3.org/2000/svg" viewBox="0 0 64 64" height="64">
 <path d="m26.055 43.88c-0.216 0-0.434-0.076-0.611-0.231l-6.112-5.335c-0.211-0.184-0.332-0.453-0.332-0.738 0-0.283 0.122-0.552 0.332-0.737l6.112-5.334c0.396-0.347 0.992-0.298 1.331 0.109 0.338 0.407 0.29 1.018-0.107 1.364l-5.267 4.598 5.267 4.598c0.397 0.347 0.445 0.958 0.107 1.365-0.187 0.225-0.453 0.341-0.72 0.341z" fill="#E03D3B"/>
 <path d="m38.945 43.88c-0.267 0-0.533-0.116-0.719-0.341-0.339-0.407-0.291-1.018 0.106-1.365l5.267-4.598-5.267-4.598c-0.397-0.346-0.445-0.957-0.106-1.364 0.337-0.407 0.934-0.456 1.33-0.109l6.112 5.334c0.211 0.185 0.332 0.454 0.332 0.737 0 0.285-0.121 0.554-0.332 0.738l-6.112 5.335c-0.177 0.155-0.395 0.231-0.611 0.231z" fill="#E03D3B"/>
 <path d="m29.996 47.759c-0.068 0-0.137-0.007-0.206-0.02-0.538-0.104-0.882-0.591-0.768-1.087l4.01-17.56c0.113-0.495 0.641-0.812 1.178-0.708 0.538 0.104 0.882 0.591 0.768 1.087l-4.01 17.56c-0.099 0.432-0.512 0.728-0.972 0.728z" fill="#E03D3B"/>
 <path d="m54.682 56.487h-44.364c-3.4833 0-6.318-2.733-6.318-6.092v-36.303c0-3.359 2.8347-6.092 6.318-6.092h44.364c3.483 0 6.318 2.733 6.318 6.092v36.303c0 3.359-2.835 6.092-6.318 6.092zm-44.364-46.672c-2.4457 0-4.4359 1.9194-4.4359 4.2774v36.303c0 2.358 1.9902 4.277 4.4359 4.277h44.364c2.446 0 4.436-1.919 4.436-4.277v-36.303c0-2.358-1.99-4.2774-4.436-4.2774h-44.364z" fill="#E03D3B"/>
 <path d="m60.059 22.546h-55.118c-0.5198 0-0.941-0.434-0.941-0.97 0-0.535 0.4212-0.97 0.941-0.97h55.118c0.52 0 0.941 0.435 0.941 0.97 0 0.536-0.421 0.97-0.941 0.97z" fill="#E03D3B"/>
 <path d="m20 18.667c-1.654 0-3-1.306-3-2.909 0-1.604 1.346-2.909 3-2.909s3 1.305 3 2.909c0 1.603-1.346 2.909-3 2.909zm0-3.98c-0.608 0-1.104 0.48-1.104 1.071 0 0.59 0.496 1.07 1.104 1.07 0.609 0 1.104-0.48 1.104-1.07 0-0.591-0.495-1.071-1.104-1.071z" fill="#E03D3B"/>
 <path d="m11 18.667c-1.6542 0-3-1.305-3-2.909s1.3458-2.909 3-2.909c1.654 0 3 1.305 3 2.909s-1.346 2.909-3 2.909zm0-3.98c-0.608 0-1.104 0.481-1.104 1.071s0.496 1.07 1.104 1.07c0.609 0 1.104-0.48 1.104-1.07s-0.495-1.071-1.104-1.071z" fill="#E03D3B"/>
 <path d="m29 18.667c-1.654 0-3-1.305-3-2.909s1.346-2.909 3-2.909 3 1.305 3 2.909-1.346 2.909-3 2.909zm0-3.98c-0.609 0-1.104 0.48-1.104 1.071 0 0.59 0.495 1.07 1.104 1.07s1.104-0.48 1.104-1.07c0-0.591-0.495-1.071-1.104-1.071z" fill="#E03D3B"/>
</svg>
